client/public/assets/play-store.svg

<svg width="212" height="72" viewBox="0 0 212 72" fill="none" xmlns="http://www.w3.org/2000/svg">
<rect x="0.880952" y="1.45981" width="209.667" height="68.7143" rx="9.69048" fill="black"/>
<rect x="0.880952" y="1.45981" width="209.667" height="68.7143" rx="9.69048" stroke="#A6A6A6" stroke-width="1.7619"/>
<path d="M31.3702 34.8684L14.2529 53.4463C14.2545 53.4496 14.2545 53.4546 14.2561 53.4579C14.7819 55.4751 16.5825 56.9597 18.7208 56.9597C19.5761 56.9597 20.3783 56.723 21.0664 56.3087L21.1211 56.2758L40.3879 44.9071L31.3702 34.8684Z" fill="#EA4335"/>
<path d="M48.6867 31.7051L48.6706 31.6935L40.3523 26.763L30.981 35.2908L40.3861 44.9053L48.6593 40.024C50.1095 39.2217 51.095 37.6582 51.095 35.8563C51.095 34.0643 50.124 32.509 48.6867 31.7051Z" fill="#FBBC04"/>
<path d="M14.2523 18.1862C14.1494 18.5742 14.0947 18.9819 14.0947 19.4028V52.2316C14.0947 52.6524 14.1494 53.0602 14.2539 53.4465L31.958 35.3437L14.2523 18.1862Z" fill="#4285F4"/>
<path d="M31.4958 35.8167L40.3542 26.7595L21.11 15.3497C20.4106 14.9206 19.5939 14.6739 18.7209 14.6739C16.5826 14.6739 14.7788 16.1618 14.2531 18.1807C14.2531 18.1824 14.2515 18.184 14.2515 18.1857L31.4958 35.8167Z" fill="#34A853"/>
<path d="M93.6313 16.4718C93.6313 17.6622 93.2781 18.6106 92.5718 19.317C91.7781 20.1583 90.7345 20.5789 89.4408 20.5789C88.2027 20.5789 87.1551 20.1503 86.298 19.2932C85.4408 18.436 85.0123 17.3805 85.0123 16.1265C85.0123 14.8726 85.4408 13.817 86.298 12.9599C87.1551 12.1027 88.2027 11.6741 89.4408 11.6741C90.0678 11.6741 90.6591 11.7853 91.2146 12.0075C91.7702 12.2297 92.2265 12.5432 92.5837 12.948L91.798 13.7337C91.5361 13.4162 91.1948 13.1702 90.7742 12.9956C90.3615 12.813 89.917 12.7218 89.4408 12.7218C88.5123 12.7218 87.7265 13.0432 87.0837 13.686C86.4488 14.3368 86.1313 15.1503 86.1313 16.1265C86.1313 17.1027 86.4488 17.9162 87.0837 18.567C87.7265 19.2099 88.5123 19.5313 89.4408 19.5313C90.29 19.5313 90.9964 19.2932 91.5599 18.817C92.1234 18.3408 92.4488 17.686 92.5361 16.8527H89.4408V15.8289H93.5718C93.6115 16.0511 93.6313 16.2654 93.6313 16.4718ZM99.9382 11.8646V12.9122H96.0573V15.6146H99.5573V16.6384H96.0573V19.3408H99.9382V20.3884H94.962V11.8646H99.9382ZM104.319 12.9122V20.3884H103.224V12.9122H100.843V11.8646H106.7V12.9122H104.319ZM111.554 20.3884H110.459V11.8646H111.554V20.3884ZM116.177 12.9122V20.3884H115.082V12.9122H112.701V11.8646H118.558V12.9122H116.177ZM130.43 16.1265C130.43 17.3884 130.009 18.444 129.168 19.2932C128.319 20.1503 127.279 20.5789 126.049 20.5789C124.811 20.5789 123.771 20.1503 122.93 19.2932C122.089 18.444 121.668 17.3884 121.668 16.1265C121.668 14.8646 122.089 13.8091 122.93 12.9599C123.771 12.1027 124.811 11.6741 126.049 11.6741C127.287 11.6741 128.327 12.1067 129.168 12.9718C130.009 13.821 130.43 14.8726 130.43 16.1265ZM122.787 16.1265C122.787 17.1106 123.097 17.9241 123.716 18.567C124.343 19.2099 125.121 19.5313 126.049 19.5313C126.978 19.5313 127.752 19.2099 128.371 18.567C128.998 17.9321 129.311 17.1186 129.311 16.1265C129.311 15.1345 128.998 14.321 128.371 13.686C127.752 13.0432 126.978 12.7218 126.049 12.7218C125.121 12.7218 124.343 13.0432 123.716 13.686C123.097 14.3289 122.787 15.1424 122.787 16.1265ZM132.818 20.3884H131.723V11.8646H133.056L137.199 18.4956H137.246L137.199 16.8527V11.8646H138.294V20.3884H137.151L132.818 13.436H132.77L132.818 15.0789V20.3884Z" fill="white"/>
<path d="M164.77 46.7769H167.64V27.3757H164.77V46.7769ZM190.618 34.3642L187.329 42.7759H187.23L183.816 34.3642H180.725L185.845 46.1205L182.927 52.6605H185.918L193.81 34.3642H190.618ZM174.344 44.5731C173.403 44.5731 172.092 44.0998 172.092 42.9249C172.092 41.4288 173.724 40.8546 175.134 40.8546C176.396 40.8546 176.991 41.1293 177.757 41.5033C177.534 43.3005 176 44.5731 174.344 44.5731ZM174.69 33.9406C172.612 33.9406 170.459 34.864 169.57 36.911L172.117 37.9834C172.661 36.911 173.675 36.5603 174.739 36.5603C176.223 36.5603 177.732 37.4589 177.757 39.0574V39.2561C177.237 38.9565 176.125 38.508 174.764 38.508C172.019 38.508 169.223 40.0305 169.223 42.8753C169.223 45.4717 171.474 47.1448 173.996 47.1448C175.926 47.1448 176.991 46.271 177.658 45.2467H177.757V46.7443H180.526V39.3057C180.526 35.8619 177.98 33.9406 174.69 33.9406ZM156.954 36.7264H152.873V30.0761H156.954C159.1 30.0761 160.318 31.8687 160.318 33.4005C160.318 34.9043 159.1 36.7264 156.954 36.7264ZM156.88 27.3757H150.004V46.7769H152.873V39.4268H156.88C160.061 39.4268 163.188 37.1019 163.188 33.4005C163.188 29.699 160.061 27.3757 156.88 27.3757ZM119.384 44.5762C117.401 44.5762 115.742 42.9017 115.742 40.6016C115.742 38.2768 117.401 36.5758 119.384 36.5758C121.342 36.5758 122.876 38.2768 122.876 40.6016C122.876 42.9017 121.342 44.5762 119.384 44.5762ZM122.68 35.4506H122.58C121.935 34.6762 120.697 33.9763 119.136 33.9763C115.865 33.9763 112.868 36.8753 112.868 40.6016C112.868 44.3015 115.865 47.1773 119.136 47.1773C120.697 47.1773 121.935 46.4774 122.58 45.6766H122.68V46.6279C122.68 49.153 121.342 50.5032 119.185 50.5032C117.426 50.5032 116.336 49.2275 115.89 48.152L113.387 49.2027C114.106 50.9533 116.014 53.1028 119.185 53.1028C122.555 53.1028 125.405 51.1023 125.405 46.2275V34.3751H122.68V35.4506ZM127.387 46.7769H130.262V27.3742H127.387V46.7769ZM134.497 40.3766C134.423 37.8267 136.455 36.5261 137.916 36.5261C139.057 36.5261 140.023 37.1004 140.344 37.926L134.497 40.3766ZM143.417 38.1759C142.873 36.7015 141.212 33.9763 137.818 33.9763C134.448 33.9763 131.649 36.6503 131.649 40.5768C131.649 44.2767 134.423 47.1773 138.139 47.1773C141.138 47.1773 142.873 45.3274 143.591 44.2519L141.361 42.7511C140.618 43.8515 139.602 44.5762 138.139 44.5762C136.678 44.5762 135.637 43.9011 134.968 42.5773L143.714 38.9255L143.417 38.1759ZM73.736 36.0016V38.8013H80.3753C80.177 40.3766 79.6571 41.5266 78.8651 42.3259C77.8977 43.3021 76.3859 44.3776 73.736 44.3776C69.6466 44.3776 66.4508 41.0517 66.4508 36.9266C66.4508 32.7999 69.6466 29.4755 73.736 29.4755C75.9414 29.4755 77.5517 30.3508 78.7405 31.476L80.6983 29.5004C79.0373 27.9003 76.8335 26.6742 73.736 26.6742C68.1364 26.6742 63.4287 31.2758 63.4287 36.9266C63.4287 42.5773 68.1364 47.1773 73.736 47.1773C76.7581 47.1773 79.0373 46.1763 80.8214 44.3015C82.6561 42.4516 83.2252 39.852 83.2252 37.7507C83.2252 37.1004 83.1759 36.5013 83.076 36.0016H73.736ZM90.7749 44.5762C88.7925 44.5762 87.0823 42.9265 87.0823 40.5768C87.0823 38.2007 88.7925 36.5758 90.7749 36.5758C92.7558 36.5758 94.466 38.2007 94.466 40.5768C94.466 42.9265 92.7558 44.5762 90.7749 44.5762ZM90.7749 33.9763C87.1561 33.9763 84.2079 36.7512 84.2079 40.5768C84.2079 44.3776 87.1561 47.1773 90.7749 47.1773C94.3922 47.1773 97.3404 44.3776 97.3404 40.5768C97.3404 36.7512 94.3922 33.9763 90.7749 33.9763ZM105.098 44.5762C103.115 44.5762 101.405 42.9265 101.405 40.5768C101.405 38.2007 103.115 36.5758 105.098 36.5758C107.08 36.5758 108.789 38.2007 108.789 40.5768C108.789 42.9265 107.08 44.5762 105.098 44.5762ZM105.098 33.9763C101.481 33.9763 98.5323 36.7512 98.5323 40.5768C98.5323 44.3776 101.481 47.1773 105.098 47.1773C108.715 47.1773 111.663 44.3776 111.663 40.5768C111.663 36.7512 108.715 33.9763 105.098 33.9763Z" fill="white"/>
</svg>

<svg xmlns="http://www.w3.org/2000/svg" width="212" height="72" fill="none"><rect width="209.667" height="68.714" x=".881" y="1.46" fill="#000" rx="9.69"/><rect width="209.667" height="68.714" x=".881" y="1.46" stroke="#A6A6A6" stroke-width="1.762" rx="9.69"/><path fill="#EA4335" d="M31.37 34.868 14.253 53.446l.003.012c.526 2.017 2.326 3.502 4.465 3.502.855 0 1.657-.237 2.345-.651l.055-.033 19.267-11.369z"/><path fill="#FBBC04" d="m48.687 31.705-.016-.011-8.319-4.931-9.371 8.528 9.405 9.614 8.273-4.881a4.75 4.75 0 0 0 2.436-4.168 4.74 4.74 0 0 0-2.408-4.15"/><path fill="#4285F4" d="M14.252 18.186a4.7 4.7 0 0 0-.157 1.217v32.829c0 .42.054.828.159 1.215l17.704-18.103z"/><path fill="#34A853" d="m31.496 35.817 8.858-9.058L21.11 15.35a4.55 4.55 0 0 0-2.39-.675c-2.137 0-3.941 1.488-4.467 3.507l-.002.005z"/><path fill="#fff" d="M93.631 16.472q0 1.786-1.06 2.845-1.19 1.262-3.13 1.262-1.857 0-3.143-1.286-1.286-1.285-1.286-3.166t1.286-3.167q1.286-1.286 3.143-1.286.94 0 1.774.334a3.55 3.55 0 0 1 1.369.94l-.786.786a2.6 2.6 0 0 0-1.024-.738 3.3 3.3 0 0 0-1.333-.274q-1.394 0-2.357.964-.953.976-.953 2.44 0 1.465.953 2.441.963.964 2.357.964 1.273 0 2.119-.714.845-.714.976-1.964h-3.095v-1.024h4.13q.06.333.06.643m6.307-4.607v1.047h-3.88v2.703h3.5v1.023h-3.5v2.703h3.88v1.047h-4.976v-8.523zm4.381 1.047v7.476h-1.095v-7.476h-2.381v-1.047h5.857v1.047zm7.235 7.476h-1.095v-8.523h1.095zm4.623-7.476v7.476h-1.095v-7.476h-2.381v-1.047h5.857v1.047zm14.253 3.214q0 1.893-1.262 3.167-1.274 1.286-3.119 1.286-1.857 0-3.119-1.286-1.262-1.274-1.262-3.166 0-1.893 1.262-3.167 1.262-1.286 3.119-1.286t3.119 1.298q1.262 1.273 1.262 3.155m-7.643 0q0 1.477.929 2.441.94.964 2.333.964t2.322-.964q.94-.952.94-2.44t-.94-2.441q-.928-.964-2.322-.964-1.392 0-2.333.964-.929.964-.929 2.44m10.031 4.262h-1.095v-8.523h1.333l4.143 6.63h.047l-.047-1.642v-4.988h1.095v8.523h-1.143l-4.333-6.952h-.048l.048 1.643zM164.77 46.777h2.87V27.376h-2.87zm25.848-12.413-3.289 8.412h-.099l-3.414-8.412h-3.091l5.12 11.757-2.918 6.54h2.991l7.892-18.297zm-16.274 10.21c-.941 0-2.252-.474-2.252-1.65 0-1.495 1.632-2.07 3.042-2.07 1.262 0 1.857.275 2.623.65-.223 1.797-1.757 3.07-3.413 3.07m.346-10.633c-2.078 0-4.231.923-5.12 2.97l2.547 1.072c.544-1.072 1.558-1.423 2.622-1.423 1.484 0 2.993.899 3.018 2.497v.2c-.52-.3-1.632-.749-2.993-.749-2.745 0-5.541 1.523-5.541 4.367 0 2.597 2.251 4.27 4.773 4.27 1.93 0 2.995-.874 3.662-1.898h.099v1.497h2.769v-7.438c0-3.444-2.546-5.365-5.836-5.365m-17.736 2.785h-4.081v-6.65h4.081c2.146 0 3.364 1.793 3.364 3.325 0 1.503-1.218 3.325-3.364 3.325m-.074-9.35h-6.876v19.4h2.869v-7.35h4.007c3.181 0 6.308-2.324 6.308-6.026s-3.127-6.024-6.308-6.024m-37.496 17.2c-1.983 0-3.642-1.674-3.642-3.974 0-2.325 1.659-4.026 3.642-4.026 1.958 0 3.492 1.7 3.492 4.026 0 2.3-1.534 3.974-3.492 3.974m3.296-9.125h-.1c-.645-.775-1.883-1.475-3.444-1.475-3.271 0-6.268 2.9-6.268 6.626 0 3.7 2.997 6.575 6.268 6.575 1.561 0 2.799-.7 3.444-1.5h.1v.95c0 2.526-1.338 3.876-3.495 3.876-1.759 0-2.849-1.276-3.295-2.351l-2.503 1.05c.719 1.751 2.627 3.9 5.798 3.9 3.37 0 6.22-2 6.22-6.874V34.375h-2.725zm4.707 11.326h2.875V27.374h-2.875zm7.11-6.4c-.074-2.55 1.958-3.85 3.419-3.85 1.141 0 2.107.573 2.428 1.399zm8.92-2.201c-.544-1.474-2.205-4.2-5.599-4.2-3.37 0-6.169 2.674-6.169 6.6 0 3.7 2.774 6.601 6.49 6.601 2.999 0 4.734-1.85 5.452-2.925l-2.23-1.5c-.743 1.1-1.759 1.824-3.222 1.824-1.461 0-2.502-.675-3.171-1.999l8.746-3.651zm-69.681-2.174v2.8h6.64c-.199 1.575-.719 2.725-1.51 3.524-.968.976-2.48 2.052-5.13 2.052-4.09 0-7.285-3.326-7.285-7.451 0-4.127 3.196-7.451 7.285-7.451 2.205 0 3.816.875 5.004 2l1.958-1.976c-1.66-1.6-3.864-2.826-6.962-2.826-5.6 0-10.307 4.602-10.307 10.253s4.707 10.25 10.307 10.25c3.022 0 5.301-1 7.085-2.876 1.835-1.85 2.404-4.449 2.404-6.55 0-.65-.05-1.25-.149-1.75zm17.039 8.574c-1.983 0-3.693-1.65-3.693-4 0-2.375 1.71-4 3.693-4 1.98 0 3.691 1.625 3.691 4 0 2.35-1.71 4-3.691 4m0-10.6c-3.619 0-6.567 2.775-6.567 6.6 0 3.802 2.948 6.601 6.567 6.601 3.617 0 6.565-2.8 6.565-6.6 0-3.826-2.948-6.6-6.565-6.6m14.323 10.6c-1.983 0-3.693-1.65-3.693-4 0-2.375 1.71-4 3.693-4 1.982 0 3.691 1.625 3.691 4 0 2.35-1.709 4-3.691 4m0-10.6c-3.617 0-6.566 2.775-6.566 6.6 0 3.802 2.949 6.601 6.566 6.601s6.565-2.8 6.565-6.6c0-3.826-2.948-6.6-6.565-6.6"/></svg>
